build/flags/Kazakhstan.svg

<svg xmlns="http://www.w3.org/2000/svg" fill="none" viewBox="0 0 28 28" focusable="false"><defs><filter id="Kazakhstan_svg__a"><feColorMatrix values="0 0 0 0 1 0 0 0 0 1 0 0 0 0 1 0 0 0 1 0"/></filter></defs><mask id="Kazakhstan_svg__b" width="28" height="20" x="0" y="4" maskUnits="userSpaceOnUse"><g filter="url(#Kazakhstan_svg__a)"><rect width="28" height="20" y="4" fill="#FFF" rx="3"/><rect width="28" height="20" y="4" stroke="#969696" stroke-opacity="0" stroke-width="0" rx="3"/></g></mask><path fill="none" d="M0 0H28V28H0z"/><rect width="28" height="20" y="4" fill="#FFF" rx="3"/><rect width="28" height="20" y="4" rx="3"/><g mask="url(#Kazakhstan_svg__b)"><path fill="#30C6E0" d="M0 4H28V24H0z"/><path d="M0 4H28V24H0z"/><path fill="#FFCD4B" fill-rule="evenodd" d="M14 18C16.2091 18 18 16.2091 18 14C18 11.7909 16.2091 10 14 10C11.7909 10 10 11.7909 10 14C10 16.2091 11.7909 18 14 18Z"/><path d="M18 14C18 11.7909 16.2091 10 14 10C11.7909 10 10 11.7909 10 14C10 16.2091 11.7909 18 14 18C16.2091 18 18 16.2091 18 14Z"/><path fill="#FFCD4B" fill-rule="evenodd" d="M14 18.7136L12.3682 21.1495L11.9549 18.2468L9.42776 19.7334L10.3148 16.9389L7.39292 17.1818L9.40459 15.0489L6.66669 14L9.40459 12.9511L7.39292 10.8182L10.3148 11.0611L9.42776 8.26657L11.9549 9.75318L12.3682 6.85052L14 9.28638L15.6318 6.85052L16.0452 9.75318L18.5723 8.26657L17.6853 11.0611L20.6071 10.8182L18.5955 12.9511L21.3334 14L18.5955 15.0489L20.6071 17.1818L17.6853 16.9389L18.5723 19.7334L16.0452 18.2468L15.6318 21.1495L14 18.7136ZM18.6667 14C18.6667 16.5773 16.5774 18.6667 14 18.6667C11.4227 18.6667 9.33335 16.5773 9.33335 14C9.33335 11.4227 11.4227 9.33333 14 9.33333C16.5774 9.33333 18.6667 11.4227 18.6667 14Z"/><path d="M14 18.7136L12.3682 21.1495L11.9549 18.2468L9.42776 19.7334L10.3148 16.9389L7.39292 17.1818L9.40459 15.0489L6.66669 14L9.40459 12.9511L7.39292 10.8182L10.3148 11.0611L9.42776 8.26657L11.9549 9.75318L12.3682 6.85052L14 9.28638L15.6318 6.85052L16.0452 9.75318L18.5723 8.26657L17.6853 11.0611L20.6071 10.8182L18.5955 12.9511L21.3334 14L18.5955 15.0489L20.6071 17.1818L17.6853 16.9389L18.5723 19.7334L16.0452 18.2468L15.6318 21.1495L14 18.7136ZM18.6667 14C18.6667 16.5773 16.5774 18.6667 14 18.6667C11.4227 18.6667 9.33335 16.5773 9.33335 14C9.33335 11.4227 11.4227 9.33333 14 9.33333C16.5774 9.33333 18.6667 11.4227 18.6667 14Z"/><path fill="#FFCD4B" fill-rule="evenodd" d="M2.33331 5.33331C2.51741 5.33331 2.66665 5.48255 2.66665 5.66665L2.66665 6.33331C2.66665 6.51741 2.51741 6.66665 2.33331 6.66665L1.66665 6.66665C1.48255 6.66665 1.33331 6.51741 1.33331 6.33331L1.33331 5.66665C1.33331 5.48255 1.48255 5.33331 1.66665 5.33331L2.33331 5.33331ZM3.99998 6.99998C3.99998 6.81588 3.85074 6.66665 3.66665 6.66665L2.99998 6.66665C2.81588 6.66665 2.66665 6.81588 2.66665 6.99998L2.66665 7.66665C2.66665 7.85074 2.81588 7.99998 2.99998 7.99998L3.66665 7.99998C3.85074 7.99998 3.99998 7.85074 3.99998 7.66665L3.99998 6.99998ZM2.33331 7.99998C2.51741 7.99998 2.66665 8.14922 2.66665 8.33331L2.66665 8.99998C2.66665 9.18407 2.51741 9.33331 2.33331 9.33331L1.66665 9.33331C1.48255 9.33331 1.33331 9.18407 1.33331 8.99998L1.33331 8.33331C1.33331 8.14922 1.48255 7.99998 1.66665 7.99998L2.33331 7.99998ZM3.99998 9.66665C3.99998 9.48255 3.85074 9.33331 3.66665 9.33331L2.99998 9.33331C2.81588 9.33331 2.66665 9.48255 2.66665 9.66665L2.66665 10.3333C2.66665 10.5174 2.81588 10.6666 2.99998 10.6666L3.66665 10.6666C3.85074 10.6666 3.99998 10.5174 3.99998 10.3333L3.99998 9.66665ZM2.33331 10.6666C2.51741 10.6666 2.66665 10.8159 2.66665 11L2.66665 11.6666C2.66665 11.8507 2.51741 12 2.33331 12L1.66665 12C1.48255 12 1.33331 11.8507 1.33331 11.6666L1.33331 11C1.33331 10.8159 1.48255 10.6666 1.66665 10.6666L2.33331 10.6666ZM3.99998 12.3333C3.99998 12.1492 3.85074 12 3.66665 12L2.99998 12C2.81588 12 2.66665 12.1492 2.66665 12.3333L2.66665 13C2.66665 13.1841 2.81588 13.3333 2.99998 13.3333L3.66665 13.3333C3.85074 13.3333 3.99998 13.1841 3.99998 13L3.99998 12.3333ZM2.33331 13.3333C2.51741 13.3333 2.66665 13.4826 2.66665 13.6666L2.66665 14.3333C2.66665 14.5174 2.51741 14.6666 2.33331 14.6666L1.66665 14.6666C1.48255 14.6666 1.33331 14.5174 1.33331 14.3333L1.33331 13.6666C1.33331 13.4826 1.48255 13.3333 1.66665 13.3333L2.33331 13.3333ZM3.66665 14.6666C3.85074 14.6666 3.99998 14.8159 3.99998 15L3.99998 15.6666C3.99998 15.8507 3.85074 16 3.66665 16L2.99998 16C2.81588 16 2.66665 15.8507 2.66665 15.6666L2.66665 15C2.66665 14.8159 2.81588 14.6666 2.99998 14.6666L3.66665 14.6666ZM2.33331 16C2.51741 16 2.66665 16.1492 2.66665 16.3333L2.66665 17C2.66665 17.1841 2.51741 17.3333 2.33331 17.3333L1.66665 17.3333C1.48255 17.3333 1.33331 17.1841 1.33331 17L1.33331 16.3333C1.33331 16.1492 1.48255 16 1.66665 16L2.33331 16ZM3.66665 17.3333C3.85074 17.3333 3.99998 17.4826 3.99998 17.6666L3.99998 18.3333C3.99998 18.5174 3.85074 18.6666 3.66665 18.6666L2.99998 18.6666C2.81588 18.6666 2.66665 18.5174 2.66665 18.3333L2.66665 17.6666C2.66665 17.4826 2.81588 17.3333 2.99998 17.3333L3.66665 17.3333ZM2.33331 18.6666C2.51741 18.6666 2.66665 18.8159 2.66665 19L2.66665 19.6666C2.66665 19.8507 2.51741 20 2.33331 20L1.66665 20C1.48255 20 1.33331 19.8507 1.33331 19.6666L1.33331 19C1.33331 18.8159 1.48255 18.6666 1.66665 18.6666L2.33331 18.6666ZM3.66665 20C3.85074 20 3.99998 20.1492 3.99998 20.3333L3.99998 21C3.99998 21.1841 3.85074 21.3333 3.66665 21.3333L2.99998 21.3333C2.81588 21.3333 2.66665 21.1841 2.66665 21L2.66665 20.3333C2.66665 20.1492 2.81588 20 2.99998 20L3.66665 20ZM2.33331 21.3333C2.51741 21.3333 2.66665 21.4826 2.66665 21.6666L2.66665 22.3333C2.66665 22.5174 2.51741 22.6666 2.33331 22.6666L1.66665 22.6666C1.48255 22.6666 1.33331 22.5174 1.33331 22.3333L1.33331 21.6666C1.33331 21.4826 1.48255 21.3333 1.66665 21.3333L2.33331 21.3333Z"/><path d="M2.33331 5.33331C2.51741 5.33331 2.66665 5.48255 2.66665 5.66665L2.66665 6.33331C2.66665 6.51741 2.51741 6.66665 2.33331 6.66665L1.66665 6.66665C1.48255 6.66665 1.33331 6.51741 1.33331 6.33331L1.33331 5.66665C1.33331 5.48255 1.48255 5.33331 1.66665 5.33331L2.33331 5.33331ZM3.99998 6.99998C3.99998 6.81588 3.85074 6.66665 3.66665 6.66665L2.99998 6.66665C2.81588 6.66665 2.66665 6.81588 2.66665 6.99998L2.66665 7.66665C2.66665 7.85074 2.81588 7.99998 2.99998 7.99998L3.66665 7.99998C3.85074 7.99998 3.99998 7.85074 3.99998 7.66665L3.99998 6.99998ZM2.33331 7.99998C2.51741 7.99998 2.66665 8.14922 2.66665 8.33331L2.66665 8.99998C2.66665 9.18407 2.51741 9.33331 2.33331 9.33331L1.66665 9.33331C1.48255 9.33331 1.33331 9.18407 1.33331 8.99998L1.33331 8.33331C1.33331 8.14922 1.48255 7.99998 1.66665 7.99998L2.33331 7.99998ZM3.99998 9.66665C3.99998 9.48255 3.85074 9.33331 3.66665 9.33331L2.99998 9.33331C2.81588 9.33331 2.66665 9.48255 2.66665 9.66665L2.66665 10.3333C2.66665 10.5174 2.81588 10.6666 2.99998 10.6666L3.66665 10.6666C3.85074 10.6666 3.99998 10.5174 3.99998 10.3333L3.99998 9.66665ZM2.33331 10.6666C2.51741 10.6666 2.66665 10.8159 2.66665 11L2.66665 11.6666C2.66665 11.8507 2.51741 12 2.33331 12L1.66665 12C1.48255 12 1.33331 11.8507 1.33331 11.6666L1.33331 11C1.33331 10.8159 1.48255 10.6666 1.66665 10.6666L2.33331 10.6666ZM3.99998 12.3333C3.99998 12.1492 3.85074 12 3.66665 12L2.99998 12C2.81588 12 2.66665 12.1492 2.66665 12.3333L2.66665 13C2.66665 13.1841 2.81588 13.3333 2.99998 13.3333L3.66665 13.3333C3.85074 13.3333 3.99998 13.1841 3.99998 13L3.99998 12.3333ZM2.33331 13.3333C2.51741 13.3333 2.66665 13.4826 2.66665 13.6666L2.66665 14.3333C2.66665 14.5174 2.51741 14.6666 2.33331 14.6666L1.66665 14.6666C1.48255 14.6666 1.33331 14.5174 1.33331 14.3333L1.33331 13.6666C1.33331 13.4826 1.48255 13.3333 1.66665 13.3333L2.33331 13.3333ZM3.66665 14.6666C3.85074 14.6666 3.99998 14.8159 3.99998 15L3.99998 15.6666C3.99998 15.8507 3.85074 16 3.66665 16L2.99998 16C2.81588 16 2.66665 15.8507 2.66665 15.6666L2.66665 15C2.66665 14.8159 2.81588 14.6666 2.99998 14.6666L3.66665 14.6666ZM2.33331 16C2.51741 16 2.66665 16.1492 2.66665 16.3333L2.66665 17C2.66665 17.1841 2.51741 17.3333 2.33331 17.3333L1.66665 17.3333C1.48255 17.3333 1.33331 17.1841 1.33331 17L1.33331 16.3333C1.33331 16.1492 1.48255 16 1.66665 16L2.33331 16ZM3.66665 17.3333C3.85074 17.3333 3.99998 17.4826 3.99998 17.6666L3.99998 18.3333C3.99998 18.5174 3.85074 18.6666 3.66665 18.6666L2.99998 18.6666C2.81588 18.6666 2.66665 18.5174 2.66665 18.3333L2.66665 17.6666C2.66665 17.4826 2.81588 17.3333 2.99998 17.3333L3.66665 17.3333ZM2.33331 18.6666C2.51741 18.6666 2.66665 18.8159 2.66665 19L2.66665 19.6666C2.66665 19.8507 2.51741 20 2.33331 20L1.66665 20C1.48255 20 1.33331 19.8507 1.33331 19.6666L1.33331 19C1.33331 18.8159 1.48255 18.6666 1.66665 18.6666L2.33331 18.6666ZM3.66665 20C3.85074 20 3.99998 20.1492 3.99998 20.3333L3.99998 21C3.99998 21.1841 3.85074 21.3333 3.66665 21.3333L2.99998 21.3333C2.81588 21.3333 2.66665 21.1841 2.66665 21L2.66665 20.3333C2.66665 20.1492 2.81588 20 2.99998 20L3.66665 20ZM2.33331 21.3333C2.51741 21.3333 2.66665 21.4826 2.66665 21.6666L2.66665 22.3333C2.66665 22.5174 2.51741 22.6666 2.33331 22.6666L1.66665 22.6666C1.48255 22.6666 1.33331 22.5174 1.33331 22.3333L1.33331 21.6666C1.33331 21.4826 1.48255 21.3333 1.66665 21.3333L2.33331 21.3333Z"/></g></svg>

<svg xmlns="http://www.w3.org/2000/svg" fill="none" viewBox="0 0 28 28" focusable="false"><path fill="none" d="M0 0h28v28H0z"/><rect width="28" height="20" y="4" fill="#FFF" rx="3"/><rect width="28" height="20" y="4" rx="3"/><mask id="Kazakhstan_svg__a" width="28" height="20" x="0" y="4" mask-type="alpha" maskUnits="userSpaceOnUse"><rect width="28" height="20" y="4" fill="#FFF" rx="3"/><rect width="28" height="20" y="4" stroke="#979797" stroke-opacity="0" stroke-width="0" rx="3"/></mask><g mask="url(#Kazakhstan_svg__a)"><path fill="#30C6E0" d="M0 4h28v20H0z"/><path d="M0 4h28v20H0z"/></g><g mask="url(#Kazakhstan_svg__a)"><path fill="#FFCD4B" fill-rule="evenodd" d="M14 18c2.2 0 4-1.8 4-4a3.999 3.999 0 1 0-4 4"/><path d="M18 14a3.999 3.999 0 1 0-8.002-.002A3.999 3.999 0 0 0 18 14"/></g><g mask="url(#Kazakhstan_svg__a)"><mask id="Kazakhstan_svg__b" fill="#fff"><path fill-rule="evenodd" d="m14 18.714-1.632 2.436-.413-2.903-2.527 1.486.887-2.794-2.922.243 2.012-2.133L6.667 14l2.738-1.049-2.012-2.133 2.922.243-.887-2.794 2.527 1.486.413-2.902L14 9.286l1.632-2.435.413 2.902 2.527-1.486-.887 2.794 2.922-.243-2.011 2.133L21.333 14l-2.737 1.049 2.011 2.133-2.922-.243.887 2.794-2.527-1.486-.413 2.903zM18.667 14a4.667 4.667 0 1 1-9.334 0 4.667 4.667 0 0 1 9.334 0" clip-rule="evenodd"/></mask><path fill="#FFCD4B" fill-rule="evenodd" d="m14 18.714-1.632 2.436-.413-2.903-2.527 1.486.887-2.794-2.922.243 2.012-2.133L6.667 14l2.738-1.049-2.012-2.133 2.922.243-.887-2.794 2.527 1.486.413-2.902L14 9.286l1.632-2.435.413 2.902 2.527-1.486-.887 2.794 2.922-.243-2.011 2.133L21.333 14l-2.737 1.049 2.011 2.133-2.922-.243.887 2.794-2.527-1.486-.413 2.903zM18.667 14a4.667 4.667 0 1 1-9.334 0 4.667 4.667 0 0 1 9.334 0" clip-rule="evenodd" mask="url(#Kazakhstan_svg__b)"/></g><g mask="url(#Kazakhstan_svg__a)"><mask id="Kazakhstan_svg__c" fill="#fff"><path fill-rule="evenodd" d="M1.667 5.333h.666c.184 0 .334.15.334.334v.666c0 .184-.15.334-.334.334h-.666a.333.333 0 0 1-.334-.334v-.666c0-.184.15-.334.334-.334M3 6.667h.667C3.85 6.667 4 6.816 4 7v.667C4 7.85 3.85 8 3.667 8H3a.333.333 0 0 1-.333-.333V7c0-.184.149-.333.333-.333M1.667 8h.666c.184 0 .334.15.334.333V9c0 .184-.15.333-.334.333h-.666A.333.333 0 0 1 1.333 9v-.667c0-.184.15-.333.334-.333M3 9.333h.667c.184 0 .333.15.333.334v.666c0 .184-.15.334-.333.334H3a.333.333 0 0 1-.333-.334v-.666c0-.184.149-.334.333-.334m-1.333 1.334h.666c.184 0 .334.149.334.333v.667c0 .184-.15.333-.334.333h-.666a.333.333 0 0 1-.334-.333V11c0-.184.15-.333.334-.333M3 12h.667c.184 0 .333.15.333.333V13c0 .184-.15.333-.333.333H3A.333.333 0 0 1 2.667 13v-.667c0-.184.149-.333.333-.333m-1.333 1.333h.666c.184 0 .334.15.334.334v.666c0 .184-.15.334-.334.334h-.666a.333.333 0 0 1-.334-.334v-.666c0-.184.15-.334.334-.334M3 14.667h.667c.184 0 .333.149.333.333v.667c0 .184-.15.333-.333.333H3a.333.333 0 0 1-.333-.333V15c0-.184.149-.333.333-.333M1.667 16h.666c.184 0 .334.15.334.333V17c0 .184-.15.333-.334.333h-.666A.333.333 0 0 1 1.333 17v-.667c0-.184.15-.333.334-.333M3 17.333h.667c.184 0 .333.15.333.334v.666c0 .184-.15.334-.333.334H3a.333.333 0 0 1-.333-.334v-.666c0-.184.149-.334.333-.334m-1.333 1.334h.666c.184 0 .334.149.334.333v.667c0 .184-.15.333-.334.333h-.666a.333.333 0 0 1-.334-.333V19c0-.184.15-.333.334-.333M3 20h.667c.184 0 .333.15.333.333V21c0 .184-.15.333-.333.333H3A.333.333 0 0 1 2.667 21v-.667c0-.184.149-.333.333-.333m-1.333 1.333h.666c.184 0 .334.15.334.334v.666c0 .184-.15.334-.334.334h-.666a.333.333 0 0 1-.334-.334v-.666c0-.184.15-.334.334-.334" clip-rule="evenodd"/></mask><path fill="#FFCD4B" fill-rule="evenodd" d="M1.667 5.333h.666c.184 0 .334.15.334.334v.666c0 .184-.15.334-.334.334h-.666a.333.333 0 0 1-.334-.334v-.666c0-.184.15-.334.334-.334M3 6.667h.667C3.85 6.667 4 6.816 4 7v.667C4 7.85 3.85 8 3.667 8H3a.333.333 0 0 1-.333-.333V7c0-.184.149-.333.333-.333M1.667 8h.666c.184 0 .334.15.334.333V9c0 .184-.15.333-.334.333h-.666A.333.333 0 0 1 1.333 9v-.667c0-.184.15-.333.334-.333M3 9.333h.667c.184 0 .333.15.333.334v.666c0 .184-.15.334-.333.334H3a.333.333 0 0 1-.333-.334v-.666c0-.184.149-.334.333-.334m-1.333 1.334h.666c.184 0 .334.149.334.333v.667c0 .184-.15.333-.334.333h-.666a.333.333 0 0 1-.334-.333V11c0-.184.15-.333.334-.333M3 12h.667c.184 0 .333.15.333.333V13c0 .184-.15.333-.333.333H3A.333.333 0 0 1 2.667 13v-.667c0-.184.149-.333.333-.333m-1.333 1.333h.666c.184 0 .334.15.334.334v.666c0 .184-.15.334-.334.334h-.666a.333.333 0 0 1-.334-.334v-.666c0-.184.15-.334.334-.334M3 14.667h.667c.184 0 .333.149.333.333v.667c0 .184-.15.333-.333.333H3a.333.333 0 0 1-.333-.333V15c0-.184.149-.333.333-.333M1.667 16h.666c.184 0 .334.15.334.333V17c0 .184-.15.333-.334.333h-.666A.333.333 0 0 1 1.333 17v-.667c0-.184.15-.333.334-.333M3 17.333h.667c.184 0 .333.15.333.334v.666c0 .184-.15.334-.333.334H3a.333.333 0 0 1-.333-.334v-.666c0-.184.149-.334.333-.334m-1.333 1.334h.666c.184 0 .334.149.334.333v.667c0 .184-.15.333-.334.333h-.666a.333.333 0 0 1-.334-.333V19c0-.184.15-.333.334-.333M3 20h.667c.184 0 .333.15.333.333V21c0 .184-.15.333-.333.333H3A.333.333 0 0 1 2.667 21v-.667c0-.184.149-.333.333-.333m-1.333 1.333h.666c.184 0 .334.15.334.334v.666c0 .184-.15.334-.334.334h-.666a.333.333 0 0 1-.334-.334v-.666c0-.184.15-.334.334-.334" clip-rule="evenodd" mask="url(#Kazakhstan_svg__c)"/></g></svg>
